;FLAVOR:Marlin
;TIME:31027
;Filament used: 24.7548m
;Layer height: 0.2
;MINX:47.763
;MINY:23.95
;MINZ:0.2
;MAXX:187.237
;MAXY:211.05
;MAXZ:31.6
;Generated with Cura_SteamEngine 4.13.1
M140 S50
M105
M190 S50
M104 S200
M105
M109 S200
M82 ;absolute extrusion mode
; Ender 3 Custom Start G-code
G92 E0 ; Reset Extruder
G28 ; Home all axes
G1 Z2.0 F3000 ; Move Z Axis up little to prevent scratching of Heat Bed
G1 X0.1 Y20 Z0.3 F5000.0 ; Move to start position
G1 X0.1 Y200.0 Z0.3 F1500.0 E15 ; Draw the first line
G1 X0.4 Y200.0 Z0.3 F5000.0 ; Move to side a little
G1 X0.4 Y20 Z0.3 F1500.0 E30 ; Draw the second line
G92 E0 ; Reset Extruder
G1 Z2.0 F3000 ; Move Z Axis up little to prevent scratching of Heat Bed
G1 X5 Y20 Z0.3 F5000.0 ; Move over to prevent blob squish
G92 E0
G92 E0
G1 F2700 E-5
;LAYER_COUNT:158
;LAYER:0
M107
G0 F6000 X49.255 Y29.443 Z0.2
;TYPE:SKIRT
G1 F2700 E0
G1 F1200 X49.759 Y28.653 E0.03117
G1 X50.329 Y27.908 E0.06237
G1 X50.961 Y27.214 E0.09359
G1 X51.649 Y26.577 E0.12477
G1 X52.389 Y26.001 E0.15596
G1 X53.175 Y25.489 E0.18716
G1 X54.002 Y25.047 E0.21835
G1 X54.864 Y24.677 E0.24955
G1 X55.754 Y24.381 E0.28074
G1 X56.666 Y24.163 E0.31193
G1 X57.593 Y24.022 E0.34312
G1 X58.464 Y23.963 E0.37216
G1 X58.785 Y23.954 E0.38284
G1 X59.093 Y23.95 E0.39308
G1 X175.53 Y23.95 E4.26579
G1 X176.386 Y23.961 E4.29426
G1 X177.322 Y24.015 E4.32545
G1 X178.25 Y24.147 E4.35662
G1 X179.164 Y24.359 E4.38783
G1 X180.056 Y24.648 E4.41902
G1 X180.921 Y25.011 E4.45022
G1 X181.751 Y25.447 E4.4814
G1 X182.542 Y25.952 E4.51261
G1 X183.286 Y26.523 E4.54381
G1 X183.979 Y27.155 E4.575
G1 X184.616 Y27.843 E4.60619
G1 X185.191 Y28.584 E4.63738
G1 X185.702 Y29.37 E4.66856
G1 X186.144 Y30.198 E4.69978
G1 X186.513 Y31.06 E4.73097
G1 X186.808 Y31.95 E4.76215
G1 X187.026 Y32.862 E4.79334
G1 X187.166 Y33.79 E4.82456
G1 X187.224 Y34.651 E4.85326
G1 X187.233 Y34.971 E4.86391
G1 X187.237 Y35.28 E4.87418
G1 X187.236 Y199.45 E10.3345
G1 X187.227 Y200.177 E10.35868
G1 X187.176 Y201.114 E10.38989
G1 X187.044 Y202.042 E10.42107
G1 X186.835 Y202.956 E10.45225
G1 X186.548 Y203.849 E10.48345
G1 X186.186 Y204.715 E10.51467
G1 X185.752 Y205.546 E10.54585
G1 X185.248 Y206.337 E10.57705
G1 X184.679 Y207.082 E10.60823
G1 X184.048 Y207.777 E10.63945
G1 X183.361 Y208.415 E10.67063
G1 X182.622 Y208.992 E10.70181
G1 X181.836 Y209.504 E10.73301
G1 X181.01 Y209.947 E10.76419
G1 X180.148 Y210.319 E10.79541
G1 X179.259 Y210.615 E10.82658
G1 X178.347 Y210.835 E10.85778
G1 X177.42 Y210.976 E10.88897
G1 X176.536 Y211.037 E10.91844
G1 X176.215 Y211.046 E10.92912
G1 X175.907 Y211.05 E10.93937
G1 X59.328 Y211.049 E14.8168
G1 X58.63 Y211.04 E14.84002
G1 X57.694 Y210.988 E14.8712
G1 X56.765 Y210.856 E14.90241
G1 X55.851 Y210.646 E14.9336
G1 X54.958 Y210.359 E14.9648
G1 X54.093 Y209.996 E14.996
G1 X53.262 Y209.562 E15.02718
G1 X52.471 Y209.058 E15.05837
G1 X51.726 Y208.488 E15.08957
G1 X51.032 Y207.857 E15.12077
G1 X50.395 Y207.17 E15.15193
G1 X49.818 Y206.43 E15.18314
G1 X49.306 Y205.644 E15.21434
G1 X48.863 Y204.817 E15.24554
G1 X48.492 Y203.956 E15.27673
G1 X48.196 Y203.066 E15.30792
G1 X47.977 Y202.154 E15.33912
G1 X47.836 Y201.227 E15.3703
G1 X47.776 Y200.338 E15.39994
G1 X47.767 Y200.005 E15.41102
G1 X47.763 Y199.708 E15.4209
G1 X47.764 Y35.475 E20.88331
G1 X47.773 Y34.81 E20.90543
G1 X47.826 Y33.874 E20.93661
G1 X47.958 Y32.945 E20.96782
G1 X48.169 Y32.031 E20.99902
G1 X48.457 Y31.139 E21.0302
G1 X48.82 Y30.274 E21.0614
G1 X49.255 Y29.443 E21.09259
G0 F6000 X49.652 Y29.556
G1 F1200 X50.155 Y28.785 E21.12321
G1 X50.724 Y28.061 E21.15384
G1 X51.352 Y27.389 E21.18443
G1 X52.037 Y26.773 E21.21507
G1 X52.773 Y26.22 E21.24569
G1 X53.554 Y25.732 E21.27632
G1 X54.374 Y25.314 E21.30693
G1 X55.228 Y24.969 E21.33757
G1 X56.108 Y24.699 E21.36818
G1 X57.008 Y24.507 E21.39879
G1 X57.922 Y24.393 E21.42943
G1 X58.475 Y24.363 E21.44785
G1 X58.796 Y24.354 E21.45853
G1 X59.093 Y24.35 E21.46841
G1 X175.53 Y24.35 E25.34112
G1 X176.38 Y24.361 E25.36939
G1 X177.299 Y24.414 E25.40001
G1 X178.21 Y24.547 E25.43063
G1 X179.106 Y24.758 E25.46124
G1 X179.98 Y25.046 E25.49185
G1 X180.827 Y25.409 E25.5225
G1 X181.638 Y25.844 E25.55311
G1 X182.408 Y26.348 E25.58372
G1 X183.132 Y26.917 E25.61435
G1 X183.804 Y27.547 E25.64498
G1 X184.419 Y28.232 E25.6756
G1 X184.972 Y28.968 E25.70622
G1 X185.459 Y29.749 E25.73683
G1 X185.876 Y30.57 E25.76746
G1 X186.221 Y31.424 E25.79809
G1 X186.49 Y32.304 E25.8287
G1 X186.682 Y33.205 E25.85934
G1 X186.795 Y34.118 E25.88994
G1 X186.824 Y34.662 E25.90806
G1 X186.833 Y34.982 E25.9187
G1 X186.837 Y35.28 E25.92862
G1 X186.836 Y199.445 E31.38877
G1 X186.827 Y200.172 E31.41295
G1 X186.776 Y201.091 E31.44356
G1 X186.645 Y202.003 E31.47421
G1 X186.435 Y202.899 E31.50482
G1 X186.149 Y203.774 E31.53543
G1 X185.788 Y204.621 E31.56606
G1 X185.354 Y205.433 E31.59668
G1 X184.852 Y206.205 E31.62731
G1 X184.284 Y206.93 E31.65794
G1 X183.656 Y207.603 E31.68856
G1 X182.972 Y208.219 E31.71917
G1 X182.237 Y208.773 E31.74978
G1 X181.457 Y209.262 E31.7804
G1 X180.637 Y209.681 E31.81103
G1 X179.784 Y210.027 E31.84165
G1 X178.904 Y210.298 E31.87227
G1 X178.004 Y210.491 E31.90289
G1 X177.09 Y210.606 E31.93353
G1 X176.525 Y210.637 E31.95235
G1 X176.204 Y210.646 E31.96303
G1 X175.907 Y210.65 E31.97291
G1 X59.333 Y210.649 E35.85017
G1 X58.635 Y210.64 E35.87339
G1 X57.716 Y210.588 E35.90401
G1 X56.805 Y210.457 E35.93462
G1 X55.909 Y210.247 E35.96523
G1 X55.034 Y209.96 E35.99586
G1 X54.187 Y209.598 E36.02649
G1 X53.375 Y209.164 E36.05711
G1 X52.604 Y208.662 E36.08771
G1 X51.879 Y208.094 E36.11835
G1 X51.206 Y207.465 E36.14899
G1 X50.591 Y206.781 E36.17958
G1 X50.037 Y206.046 E36.21019
G1 X49.549 Y205.265 E36.24082
G1 X49.13 Y204.445 E36.27145
G1 X48.784 Y203.592 E36.30207
G1 X48.514 Y202.712 E36.33268
G1 X48.321 Y201.811 E36.36333
G1 X48.207 Y200.898 E36.39393
G1 X48.176 Y200.327 E36.41295
G1 X48.167 Y199.994 E36.42403
G1 X48.163 Y199.708 E36.43354
G1 X48.164 Y35.481 E41.89576
G1 X48.173 Y34.816 E41.91788
G1 X48.225 Y33.896 E41.94852
G1 X48.357 Y32.985 E41.97914
G1 X48.568 Y32.089 E42.00976
G1 X48.855 Y31.214 E42.04038
G1 X49.218 Y30.368 E42.071
G1 X49.652 Y29.556 E42.10163
G0 F6000 X50.049 Y29.672
G1 F1200 X50.551 Y28.921 E42.13167
G1 X51.118 Y28.217 E42.16174
G1 X51.744 Y27.567 E42.19175
G1 X52.425 Y26.974 E42.22179
G1 X53.157 Y26.444 E42.25184
G1 X53.932 Y25.981 E42.28187
G1 X54.745 Y25.588 E42.3119
G1 X55.59 Y25.268 E42.34196
G1 X56.459 Y25.025 E42.37197
G1 X57.347 Y24.859 E42.40201
G1 X58.486 Y24.763 E42.44003
G1 X58.807 Y24.754 E42.45071
G1 X59.093 Y24.75 E42.46023
G1 X175.53 Y24.75 E46.33294
G1 X176.374 Y24.761 E46.36101
G1 X177.276 Y24.814 E46.39106
G1 X178.169 Y24.946 E46.42109
G1 X179.047 Y25.157 E46.45112
G1 X179.903 Y25.445 E46.48116
G1 X180.73 Y25.807 E46.51119
G1 X181.522 Y26.242 E46.54124
G1 X182.273 Y26.744 E46.57128
G1 X182.976 Y27.311 E46.60132
G1 X183.626 Y27.938 E46.63136
G1 X184.218 Y28.62 E46.6614
G1 X184.748 Y29.351 E46.69143
G1 X185.21 Y30.127 E46.72147
G1 X185.603 Y30.94 E46.7515
G1 X185.921 Y31.785 E46.78153
G1 X186.164 Y32.655 E46.81157
G1 X186.329 Y33.543 E46.84162
G1 X186.424 Y34.673 E46.87933
G1 X186.433 Y34.993 E46.88998
G1 X186.437 Y35.28 E46.89953
G1 X186.436 Y199.44 E52.35951
G1 X186.427 Y200.167 E52.38369
G1 X186.376 Y201.069 E52.41374
G1 X186.245 Y201.963 E52.44379
G1 X186.036 Y202.841 E52.47381
G1 X185.75 Y203.698 E52.50386
G1 X185.389 Y204.526 E52.5339
G1 X184.957 Y205.318 E52.56391
G1 X184.456 Y206.07 E52.59396
G1 X183.89 Y206.774 E52.62401
G1 X183.265 Y207.425 E52.65402
G1 X182.584 Y208.019 E52.68408
G1 X181.853 Y208.55 E52.71413
G1 X181.079 Y209.014 E52.74414
G1 X180.266 Y209.408 E52.77419
G1 X179.422 Y209.728 E52.80421
G1 X178.552 Y209.973 E52.83428
G1 X177.665 Y210.139 E52.86429
G1 X176.514 Y210.237 E52.90271
G1 X176.193 Y210.246 E52.91339
G1 X175.907 Y210.25 E52.9229
G1 X59.338 Y210.249 E56.80001
G1 X58.64 Y210.24 E56.82322
G1 X57.739 Y210.189 E56.85324
G1 X56.845 Y210.057 E56.8833
G1 X55.967 Y209.848 E56.91331
G1 X55.11 Y209.561 E56.94337
G1 X54.283 Y209.2 E56.97339
G1 X53.49 Y208.767 E57.00344
G1 X52.739 Y208.266 E57.03346
G1 X52.035 Y207.7 E57.06351
G1 X51.384 Y207.074 E57.09355
G1 X50.791 Y206.393 E57.12358
G1 X50.261 Y205.662 E57.15361
G1 X49.797 Y204.887 E57.18365
G1 X49.403 Y204.074 E57.2137
G1 X49.083 Y203.23 E57.24372
G1 X48.839 Y202.36 E57.27378
G1 X48.673 Y201.472 E57.30382
G1 X48.576 Y200.317 E57.34238
G1 X48.567 Y199.984 E57.35345
G1 X48.563 Y199.708 E57.36264
G1 X48.564 Y35.486 E62.82468
G1 X48.573 Y34.821 E62.8468
G1 X48.625 Y33.919 E62.87685
G1 X48.757 Y33.026 E62.90688
G1 X48.967 Y32.148 E62.9369
G1 X49.254 Y31.291 E62.96696
G1 X49.616 Y30.464 E62.99699
G1 X50.049 Y29.672 E63.02701
G1 F2700 E58.02701
;MESH:Body V3.3MF
G0 F6000 X147.693 Y123.793
G0 X146.258 Y123.793
G0 X146.428 Y125.72
;TYPE:WALL-INNER
G1 F2700 E63.02701
G1 F1200 X151.438 Y125.72 E63.19364
G1 X151.438 Y105.47 E63.86716
G1 X146.428 Y105.47 E64.03379
G1 X146.428 Y125.72 E64.70731
G0 F6000 X146.828 Y125.32
;TYPE:WALL-OUTER
G1 F1200 X151.038 Y125.32 E64.84734
G1 X151.038 Y105.87 E65.49425
G1 X146.828 Y105.87 E65.63427
G1 X146.828 Y125.32 E66.28118
G1 F2700 E61.28118
G0 F6000 X146.528 Y125.32
G0 X146.238 Y125.72
G0 X147.681 Y124.467
G0 X87.319 Y124.467
G0 X88.762 Y125.72
G0 X88.572 Y125.72
;TYPE:WALL-INNER
G1 F2700 E66.28118
G1 F1200 X88.572 Y105.47 E66.9547
G1 X83.562 Y105.47 E67.12133
G1 X83.562 Y125.72 E67.79485
G1 X88.572 Y125.72 E67.96148
G0 F6000 X88.172 Y125.32
;TYPE:WALL-OUTER
G1 F1200 X88.172 Y105.87 E68.60839
G1 X83.962 Y105.87 E68.74842
G1 X83.962 Y125.32 E69.39533
G1 X88.172 Y125.32 E69.53535
G1 F2700 E64.53535
G0 F6000 X88.472 Y125.32
G0 X86.645 Y125.89
G0 X86.645 Y124.455
G0 X88.768 Y200.715
G0 X88.768 Y199.24
G0 X175.637 Y199.45
;TYPE:WALL-INNER
G1 F2700 E69.53535
G1 F1200 X59.363 Y199.45 E73.40264
G1 X59.363 Y35.55 E78.85398
G1 X175.637 Y35.55 E82.72127
G1 X175.637 Y199.45 E88.1726
G0 F6000 X176.037 Y199.85
;TYPE:WALL-OUTER
G1 F1200 X58.963 Y199.85 E92.0665
G1 X58.963 Y35.15 E97.54444
G1 X176.037 Y35.15 E101.43834
G1 X176.037 Y199.85 E106.91629
G0 F6000 X175.767 Y199.58
G0 X175.527 Y199.06
G0 X175.247 Y199.06
;TYPE:SKIN
G1 F1200 X59.753 Y199.06 E110.75763
G1 X59.753 Y35.94 E116.18302
G1 X175.247 Y35.94 E120.02437
G1 X175.247 Y199.06 E125.44976
G1 F2700 E120.44976
G0 F6000 X175.527 Y199.06
G0 X175.427 Y125.86
G0 X176.902 Y125.86
G0 X150.185 Y124.467
G0 X151.628 Y125.86
G1 F2700 E125.44976
G0 F6000 X151.828 Y126.11
G1 F1200 X151.828 Y105.08 E126.14922
G1 X146.038 Y105.08 E126.3418
G1 X146.038 Y126.11 E127.04126
G1 X151.828 Y126.11 E127.23384
G1 F2700 E122.23384
G0 F6000 X151.548 Y125.86
G0 X146.238 Y125.86
G0 X147.681 Y124.467
G0 X87.319 Y124.467
G0 X88.762 Y125.86
G1 F2700 E127.23384
G0 F6000 X88.962 Y126.11
G1 F1200 X88.962 Y105.08 E127.9333
G1 X83.172 Y105.08 E128.12587
G1 X83.172 Y126.11 E128.82534
G1 X88.962 Y126.11 E129.01791
G1 F2700 E124.01791
G0 F6000 X88.682 Y125.86
G0 X86.645 Y125.89
G0 X86.645 Y124.455
G0 X83.366 Y200.715
G0 X83.366 Y199.24
G0 X60.306 Y199.34
G1 F2700 E129.01791
G0 F6000 X60.306 Y198.899
G1 F1200 X59.912 Y198.505 E129.03644
G0 F6000 X59.912 Y197.939
G1 F1200 X60.871 Y198.899 E129.08158
G0 F6000 X61.437 Y198.899
G1 F1200 X59.912 Y197.374 E129.15331
G0 F6000 X59.912 Y196.808
G1 F1200 X62.003 Y198.899 E129.25166
G0 F6000 X62.569 Y198.899
G1 F1200 X59.912 Y196.242 E129.37664
G0 F6000 X59.912 Y195.676
G1 F1200 X63.134 Y198.899 E129.52822
G0 F6000 X63.7 Y198.899
G1 F1200 X59.912 Y195.111 E129.70639
G0 F6000 X59.912 Y194.545
G1 F1200 X64.266 Y198.899 E129.91119
G0 F6000 X64.831 Y198.899
G1 F1200 X59.912 Y193.979 E130.14259
G0 F6000 X59.912 Y193.414
G1 F1200 X65.397 Y198.899 E130.40059
G0 F6000 X65.963 Y198.899
G1 F1200 X59.912 Y192.848 E130.68521
G0 F6000 X59.912 Y192.282
G1 F1200 X66.528 Y198.899 E130.99643
G0 F6000 X67.094 Y198.899
G1 F1200 X59.912 Y191.717 E131.33425
G0 F6000 X59.912 Y191.151
G1 F1200 X67.66 Y198.899 E131.69869
G0 F6000 X68.225 Y198.899
G1 F1200 X59.912 Y190.585 E132.08973
G0 F6000 X59.912 Y190.02
G1 F1200 X68.791 Y198.899 E132.50737
G0 F6000 X69.357 Y198.899
G1 F1200 X59.912 Y189.454 E132.95163
G0 F6000 X59.912 Y188.888
G1 F1200 X69.922 Y198.899 E133.4225
G0 F6000 X70.488 Y198.899
G1 F1200 X59.912 Y188.323 E133.91996
G0 F6000 X59.912 Y187.757
G1 F1200 X71.054 Y198.899 E134.44405
G0 F6000 X71.62 Y198.899
G1 F1200 X59.912 Y187.191 E134.99475
G0 F6000 X59.912 Y186.625
G1 F1200 X72.185 Y198.899 E135.57206
G0 F6000 X72.751 Y198.899
G1 F1200 X59.912 Y186.06 E136.17597
G0 F6000 X59.912 Y185.494
G1 F1200 X73.317 Y198.899 E136.8065
G0 F6000 X73.882 Y198.899
G1 F1200 X59.912 Y184.928 E137.46363
G0 F6000 X59.912 Y184.363
G1 F1200 X74.448 Y198.899 E138.14736
G0 F6000 X75.014 Y198.899
G1 F1200 X59.912 Y183.797 E138.85771
G0 F6000 X59.912 Y183.231
G1 F1200 X75.579 Y198.899 E139.59466
G0 F6000 X76.145 Y198.899
G1 F1200 X59.912 Y182.666 E140.35821
G0 F6000 X59.912 Y182.1
G1 F1200 X76.711 Y198.899 E141.14838
G0 F6000 X77.276 Y198.899
G1 F1200 X59.912 Y181.534 E141.96516
G0 F6000 X59.912 Y180.969
G1 F1200 X77.842 Y198.899 E142.80853
G0 F6000 X78.408 Y198.899
G1 F1200 X59.912 Y180.403 E143.67852
G0 F6000 X59.912 Y179.837
G1 F1200 X78.973 Y198.899 E144.57512
G0 F6000 X79.539 Y198.899
G1 F1200 X59.912 Y179.272 E145.49831
G0 F6000 X59.912 Y178.706
G1 F1200 X80.105 Y198.899 E146.44813
G0 F6000 X80.67 Y198.899
G1 F1200 X59.912 Y178.14 E147.42455
G0 F6000 X59.912 Y177.575
G1 F1200 X81.236 Y198.899 E148.42756
G0 F6000 X81.802 Y198.899
G1 F1200 X59.912 Y177.009 E149.4572
G0 F6000 X59.912 Y176.443
G1 F1200 X82.368 Y198.899 E150.51346
G0 F6000 X82.933 Y198.899
G1 F1200 X59.912 Y175.877 E151.59632
G0 F6000 X59.912 Y175.312
G1 F1200 X83.499 Y198.899 E152.70578
G0 F6000 X84.065 Y198.899
G1 F1200 X59.912 Y174.746 E153.84186
G0 F6000 X59.912 Y174.18
G1 F1200 X84.63 Y198.899 E155.00455
G0 F6000 X85.196 Y198.899
G1 F1200 X59.912 Y173.615 E156.19383
G0 F6000 X59.912 Y173.049
G1 F1200 X85.762 Y198.899 E157.40973
G0 F6000 X86.327 Y198.899
G1 F1200 X59.912 Y172.483 E158.65224
G0 F6000 X59.912 Y171.918
G1 F1200 X86.893 Y198.899 E159.92134
G0 F6000 X87.459 Y198.899
G1 F1200 X59.912 Y171.352 E161.21707
G0 F6000 X59.912 Y170.786
G1 F1200 X88.024 Y198.899 E162.53939
G0 F6000 X88.59 Y198.899
G1 F1200 X59.912 Y170.221 E163.88832
G0 F6000 X59.912 Y169.655
G1 F1200 X89.156 Y198.899 E165.26387
G0 F6000 X89.721 Y198.899
G1 F1200 X59.912 Y169.089 E166.66601
G0 F6000 X59.912 Y168.524
G1 F1200 X90.287 Y198.899 E168.09476
G0 F6000 X90.853 Y198.899
G1 F1200 X59.912 Y167.958 E169.55013
G0 F6000 X59.912 Y167.392
G1 F1200 X91.419 Y198.899 E171.03212
G0 F6000 X91.984 Y198.899
G1 F1200 X59.912 Y166.826 E172.54072
G0 F6000 X59.912 Y166.261
G1 F1200 X92.55 Y198.899 E174.07591
G0 F6000 X93.116 Y198.899
G1 F1200 X59.912 Y165.695 E175.63772
G0 F6000 X59.912 Y165.129
G1 F1200 X93.681 Y198.899 E177.22614
G0 F6000 X94.247 Y198.899
G1 F1200 X59.912 Y164.564 E178.84115
G0 F6000 X59.912 Y163.998
G1 F1200 X94.813 Y198.899 E180.48278
G0 F6000 X95.378 Y198.899
G1 F1200 X59.912 Y163.432 E182.15102
G0 F6000 X59.912 Y162.867
G1 F1200 X95.944 Y198.899 E183.84586
G0 F6000 X96.51 Y198.899
G1 F1200 X59.912 Y162.301 E185.56731
G0 F6000 X59.912 Y161.735
G1 F1200 X97.075 Y198.899 E187.31537
G0 F6000 X97.641 Y198.899
G1 F1200 X59.912 Y161.17 E189.09003
G0 F6000 X59.912 Y160.604
G1 F1200 X98.207 Y198.899 E190.89131
G0 F6000 X98.772 Y198.899
G1 F1200 X59.912 Y160.038 E192.71918
G0 F6000 X59.912 Y159.473
G1 F1200 X99.338 Y198.899 E194.57366
G0 F6000 X99.904 Y198.899
G1 F1200 X59.912 Y158.907 E196.45476
G0 F6000 X59.912 Y158.341
